src/assets/duotone/GlobalRefresh.svg

<svg width="24" height="24" viewBox="0 0 24 24"  xmlns="http://www.w3.org/2000/svg">
<path d="M22.65 18.13C22.55 17.7299 22.15 17.4799 21.75 17.5799C21.35 17.6799 21.1 18.08 21.19 18.48C21.23 18.65 21.25 18.8199 21.25 18.9999C21.25 20.2399 20.24 21.2499 19 21.2499C17.76 21.2499 16.75 20.2399 16.75 18.9999C16.75 17.8999 17.54 16.99 18.59 16.79C18.49 17.02 18.5 17.2999 18.66 17.5199C18.81 17.7199 19.04 17.8299 19.27 17.8299C19.42 17.8299 19.58 17.7799 19.71 17.6899L20.88 16.8399C20.89 16.8299 20.89 16.82 20.9 16.82C20.91 16.81 20.92 16.8099 20.93 16.7999C20.96 16.7699 20.98 16.74 21 16.7C21.03 16.66 21.07 16.6299 21.09 16.5799C21.11 16.5399 21.12 16.49 21.14 16.45C21.15 16.4 21.17 16.3599 21.18 16.3099C21.19 16.2599 21.18 16.22 21.17 16.17C21.17 16.12 21.17 16.0699 21.15 16.0199C21.14 15.9699 21.11 15.93 21.09 15.89C21.07 15.85 21.06 15.8099 21.04 15.7799C21.03 15.7699 21.02 15.77 21.01 15.76C21 15.75 21 15.74 20.99 15.73L19.99 14.5799C19.72 14.2699 19.24 14.23 18.93 14.51C18.71 14.71 18.63 14.9999 18.71 15.2699C16.78 15.4199 15.25 17.0199 15.25 18.9899C15.25 21.0599 16.93 22.7399 19 22.7399C21.07 22.7399 22.75 21.0599 22.75 18.9899C22.75 18.7099 22.72 18.41 22.65 18.13Z" />
<path opacity="0.4" d="M2.02975 14.6299C2.02975 14.6599 2.00977 14.6999 2.00977 14.7299C2.92977 16.5699 4.42974 18.0799 6.26974 18.9899C6.29975 18.9899 6.33975 18.9699 6.36975 18.9699C6.02975 17.8099 5.76974 16.6199 5.57974 15.4299C4.37974 15.2299 3.18975 14.9699 2.02975 14.6299Z" />
<path opacity="0.4" d="M19.0701 6.42993C18.1301 4.45993 16.5401 2.86994 14.5801 1.93994C14.9401 3.12994 15.2401 4.34995 15.4401 5.56995C16.6601 5.76995 17.8801 6.05993 19.0701 6.42993Z" />
<path opacity="0.4" d="M1.93018 6.43002C3.13018 6.07002 4.35019 5.77004 5.57019 5.57004C5.77019 4.38004 6.02017 3.20004 6.36017 2.04004C6.33017 2.04004 6.29019 2.02002 6.26019 2.02002C4.38019 2.95002 2.85018 4.52002 1.93018 6.43002Z" />
<path opacity="0.4" d="M13.8202 5.36023C13.5802 4.06023 13.2802 2.76024 12.8502 1.50024C12.8302 1.43024 12.8302 1.37025 12.8202 1.29025C12.0802 1.11025 11.3002 0.990234 10.5002 0.990234C9.69018 0.990234 8.9202 1.10025 8.1702 1.29025C8.1602 1.36025 8.17018 1.42024 8.15018 1.50024C7.73018 2.76024 7.42018 4.06023 7.18018 5.36023C9.39018 5.12023 11.6102 5.12023 13.8202 5.36023Z" />
<path opacity="0.4" d="M5.36023 7.18018C4.05023 7.42018 2.76024 7.72018 1.50024 8.15018C1.43024 8.17018 1.37025 8.17018 1.29025 8.18018C1.11025 8.92018 0.990234 9.70018 0.990234 10.5002C0.990234 11.3102 1.10025 12.0802 1.29025 12.8302C1.36025 12.8402 1.42024 12.8302 1.50024 12.8502C2.76024 13.2702 4.05023 13.5802 5.36023 13.8202C5.12023 11.6102 5.12023 9.39018 5.36023 7.18018Z" />
<path opacity="0.4" d="M19.6999 8.18018C19.6299 8.18018 19.5699 8.17018 19.4899 8.15018C18.2299 7.73018 16.9299 7.42018 15.6299 7.18018C15.8799 9.39018 15.8799 11.6102 15.6299 13.8102C16.9299 13.5702 18.2299 13.2702 19.4899 12.8402C19.5599 12.8202 19.6199 12.8302 19.6999 12.8202C19.8799 12.0702 19.9999 11.3002 19.9999 10.4902C19.9999 9.70017 19.8899 8.93018 19.6999 8.18018Z" />
<path opacity="0.4" d="M7.18018 15.6401C7.42018 16.9501 7.72018 18.2401 8.15018 19.5001C8.17018 19.5701 8.1602 19.6301 8.1702 19.7101C8.9202 19.8901 9.69018 20.0101 10.5002 20.0101C11.3002 20.0101 12.0802 19.9001 12.8202 19.7101C12.8302 19.6401 12.8302 19.5801 12.8502 19.5001C13.2702 18.2401 13.5802 16.9501 13.8202 15.6401C12.7202 15.7601 11.6102 15.8501 10.5002 15.8501C9.39018 15.8401 8.28018 15.7601 7.18018 15.6401Z" />
<path opacity="0.4" d="M6.9501 6.9501C6.6501 9.3101 6.6501 11.6901 6.9501 14.0601C9.3101 14.3601 11.6901 14.3601 14.0601 14.0601C14.3601 11.7001 14.3601 9.3201 14.0601 6.9501C11.6901 6.6501 9.3101 6.6501 6.9501 6.9501Z" />
</svg>

<?xml version="1.0" encoding="UTF-8"?>
<svg width="24" height="24" viewBox="0 0 24 24" xmlns="http://www.w3.org/2000/svg">
 <path d="m22.65 18.13c-0.1-0.4001-0.5-0.6501-0.9-0.5501s-0.65 0.5001-0.56 0.9001c0.04 0.17 0.06 0.3399 0.06 0.5199 0 1.24-1.01 2.25-2.25 2.25s-2.25-1.01-2.25-2.25c0-1.1 0.79-2.0099 1.84-2.2099-0.1 0.23-0.09 0.5099 0.07 0.7299 0.15 0.2 0.38 0.31 0.61 0.31 0.15 0 0.31-0.05 0.44-0.14l1.17-0.85c0.01-0.01 0.01-0.0199 0.02-0.0199 0.01-0.01 0.02-0.0101 0.03-0.0201 0.03-0.03 0.05-0.0599 0.07-0.0999 0.03-0.04 0.07-0.0701 0.09-0.1201 0.02-0.04 0.03-0.0899 0.05-0.1299 0.01-0.05 0.03-0.0901 0.04-0.1401s0-0.0899-0.01-0.1399c0-0.05 0-0.1001-0.02-0.1501-0.01-0.05-0.04-0.0899-0.06-0.1299s-0.03-0.0801-0.05-0.1101c-0.01-0.01-0.02-0.0099-0.03-0.0199s-0.01-0.02-0.02-0.03l-1-1.1501c-0.27-0.31-0.75-0.3499-1.06-0.0699-0.22 0.2-0.3 0.4899-0.22 0.7599-1.93 0.15-3.46 1.75-3.46 3.72 0 2.07 1.68 3.75 3.75 3.75s3.75-1.68 3.75-3.75c0-0.28-0.03-0.5799-0.1-0.8599z"/>
 <path d="m2.0298 14.63c0 0.03-0.01998 0.07-0.01998 0.1 0.92 1.84 2.42 3.35 4.26 4.26 0.03001 0 0.07001-0.02 0.10001-0.02-0.34-1.16-0.60001-2.35-0.79001-3.54-1.2-0.2-2.39-0.46-3.55-0.8z" opacity=".4"/>
 <path d="m19.07 6.4299c-0.94-1.97-2.53-3.56-4.49-4.49 0.36 1.19 0.66 2.41 0.86 3.63 1.22 0.2 2.44 0.48998 3.63 0.85998z" opacity=".4"/>
 <path d="m1.9302 6.43c1.2-0.36 2.42-0.65998 3.64-0.85998 0.2-1.19 0.44998-2.37 0.78998-3.53-0.03 0-0.06998-0.02002-0.09998-0.02002-1.88 0.93-3.41 2.5-4.33 4.41z" opacity=".4"/>
 <path d="m13.82 5.3602c-0.24-1.3-0.54-2.6-0.97-3.86-0.02-0.07-0.02-0.12999-0.03-0.20999-0.74-0.18-1.52-0.30002-2.32-0.30002-0.81002 0-1.58 0.11002-2.33 0.30002-0.01 0.07-2e-5 0.12999-0.02002 0.20999-0.42 1.26-0.73 2.56-0.97 3.86 2.21-0.24 4.43-0.24 6.64 0z" opacity=".4"/>
 <path d="m5.3602 7.1802c-1.31 0.24-2.6 0.54-3.86 0.97-0.07 0.02-0.12999 0.02-0.20999 0.03-0.18 0.74-0.30002 1.52-0.30002 2.32 0 0.81 0.11002 1.58 0.30002 2.33 0.07 0.01 0.12999 0 0.20999 0.02 1.26 0.42 2.55 0.73 3.86 0.97-0.24-2.21-0.24-4.43 0-6.64z" opacity=".4"/>
 <path d="m19.7 8.1802c-0.07 0-0.13-0.01-0.21-0.03-1.26-0.42-2.56-0.73-3.86-0.97 0.25 2.21 0.25 4.43 0 6.63 1.3-0.24 2.6-0.54 3.86-0.97 0.07-0.02 0.13-0.01 0.21-0.02 0.18-0.75 0.3-1.52 0.3-2.33 0-0.79003-0.11-1.56-0.3-2.31z" opacity=".4"/>
 <path d="m7.1802 15.64c0.24 1.31 0.54 2.6 0.97 3.86 0.02 0.07 0.01002 0.13 0.02002 0.21 0.75 0.18 1.52 0.3 2.33 0.3 0.8 0 1.58-0.11 2.32-0.3 0.01-0.07 0.01-0.13 0.03-0.21 0.42-1.26 0.73-2.55 0.97-3.86-1.1 0.12-2.21 0.21-3.32 0.21-1.11-0.01-2.22-0.09-3.32-0.21z" opacity=".4"/>
 <path d="m6.9501 6.9501c-0.3 2.36-0.3 4.74 0 7.11 2.36 0.3 4.74 0.3 7.11 0 0.3-2.36 0.3-4.74 0-7.11-2.37-0.3-4.75-0.3-7.11 0z" opacity=".4"/>
</svg>
